(Scribbled version of C:\Users\Abc\AppData\Local\Temp\ink_ext_XXXXXX.svgXS5NH0 @ 3500.00)
( C:\Program Files (x86)\Inkscape\share\extensions\unicorn.py --tab="plotter_setup" --pen-up-angle=50 --pen-down-angle=30 --start-delay=150 --stop-delay=150 --xy-feedrate=3500 --z-feedrate=150 --z-height=0 --finished-height=0 --register-pen=true --x-home=0 --y-home=0 --num-copies=1 --continuous=false --pause-on-layer-change=false C:\Users\Abc\AppData\Local\Temp\ink_ext_XXXXXX.svgXS5NH0 )
G21 (metric ftw)
G90 (absolute mode)
G92 X0.00 Y0.00 Z0.00 (you are here)

M300 S30 (pen down)
G4 P150 (wait 150ms)
M300 S50 (pen up)
G4 P150 (wait 150ms)
M18 (disengage drives)
M01 (Was registration test successful?)
M17 (engage drives if YES, and continue)

(Polyline consisting of 11 segments.)
G1 X15.97 Y0.84 F3500.00
M300 S30.00 (pen down)
G4 P150 (wait 150ms)
G1 X14.80 Y1.00 F3500.00
G1 X17.00 Y1.22 F3500.00
G1 X19.64 Y1.46 F3500.00
G1 X21.17 Y1.90 F3500.00
G1 X22.43 Y2.68 F3500.00
G1 X22.56 Y3.56 F3500.00
G1 X22.52 Y3.78 F3500.00
G1 X22.73 Y3.82 F3500.00
G1 X24.26 Y3.99 F3500.00
G1 X25.55 Y4.75 F3500.00
G1 X26.24 Y5.77 F3500.00
G1 X26.25 Y6.27 F3500.00
G1 X25.97 Y6.72 F3500.00
G1 X25.87 Y6.92 F3500.00
G1 X26.25 Y7.23 F3500.00
G1 X27.54 Y8.46 F3500.00
G1 X27.97 Y9.72 F3500.00
G1 X27.80 Y10.49 F3500.00
G1 X27.28 Y10.70 F3500.00
G1 X27.08 Y10.75 F3500.00
G1 X27.21 Y11.13 F3500.00
G1 X27.45 Y12.70 F3500.00
G1 X27.10 Y13.85 F3500.00
G1 X26.54 Y14.18 F3500.00
G1 X26.23 Y14.06 F3500.00
G1 X26.30 Y13.48 F3500.00
G1 X26.37 Y12.94 F3500.00
G1 X26.31 Y12.86 F3500.00
G1 X25.92 Y13.12 F3500.00
G1 X25.86 Y13.16 F3500.00
G1 X26.01 Y12.54 F3500.00
G1 X26.32 Y11.57 F3500.00
G1 X26.30 Y11.09 F3500.00
G1 X25.88 Y11.39 F3500.00
G1 X25.76 Y11.54 F3500.00
G1 X25.72 Y11.42 F3500.00
G1 X25.86 Y10.79 F3500.00
G1 X26.18 Y10.29 F3500.00
G1 X25.73 Y9.03 F3500.00
G1 X25.46 Y9.56 F3500.00
G1 X25.37 Y9.69 F3500.00
G1 X25.19 Y9.35 F3500.00
G1 X25.11 Y9.11 F3500.00
G1 X25.21 Y9.00 F3500.00
G1 X25.44 Y8.49 F3500.00
G1 X25.16 Y7.61 F3500.00
G1 X24.84 Y7.17 F3500.00
G1 X24.66 Y7.67 F3500.00
G1 X24.58 Y7.90 F3500.00
G1 X24.37 Y7.66 F3500.00
G1 X24.32 Y7.16 F3500.00
G1 X24.43 Y6.78 F3500.00
G1 X24.12 Y6.21 F3500.00
G1 X23.85 Y5.75 F3500.00
G1 X23.62 Y5.63 F3500.00
G1 X23.54 Y6.15 F3500.00
G1 X23.50 Y6.42 F3500.00
G1 X23.21 Y6.14 F3500.00
G1 X23.06 Y5.74 F3500.00
G1 X22.42 Y4.75 F3500.00
G1 X22.02 Y4.51 F3500.00
G1 X22.04 Y4.83 F3500.00
G1 X22.03 Y4.99 F3500.00
G1 X21.76 Y4.84 F3500.00
G1 X21.51 Y4.65 F3500.00
G1 X21.51 Y4.41 F3500.00
G1 X21.37 Y4.00 F3500.00
G1 X20.54 Y3.42 F3500.00
G1 X20.17 Y3.29 F3500.00
G1 X20.31 Y3.66 F3500.00
G1 X20.38 Y3.89 F3500.00
G1 X19.94 Y3.73 F3500.00
G1 X19.38 Y3.26 F3500.00
G1 X19.15 Y2.89 F3500.00
G1 X18.35 Y2.52 F3500.00
G1 X17.83 Y2.39 F3500.00
G1 X17.90 Y2.66 F3500.00
G1 X17.96 Y2.90 F3500.00
G1 X17.78 Y2.94 F3500.00
G1 X17.12 Y2.51 F3500.00
G1 X16.00 Y1.99 F3500.00
G1 X15.41 Y1.88 F3500.00
G1 X15.50 Y2.20 F3500.00
G1 X15.60 Y2.43 F3500.00
G1 X15.42 Y2.52 F3500.00
G1 X14.56 Y2.28 F3500.00
G1 X13.51 Y2.00 F3500.00
G1 X12.72 Y2.09 F3500.00
G1 X13.11 Y2.39 F3500.00
G1 X13.08 Y2.58 F3500.00
G1 X12.40 Y2.51 F3500.00
G1 X11.71 Y2.35 F3500.00
G1 X10.23 Y2.72 F3500.00
G1 X10.75 Y2.97 F3500.00
G1 X10.57 Y3.23 F3500.00
G1 X9.85 Y3.40 F3500.00
G1 X9.09 Y3.38 F3500.00
G1 X8.45 Y3.73 F3500.00
G1 X8.26 Y3.92 F3500.00
G1 X8.50 Y3.96 F3500.00
G1 X8.74 Y4.03 F3500.00
G1 X8.43 Y4.32 F3500.00
G1 X7.82 Y4.60 F3500.00
G1 X6.80 Y5.03 F3500.00
G1 X6.69 Y5.25 F3500.00
G1 X7.08 Y5.20 F3500.00
G1 X6.82 Y5.60 F3500.00
G1 X6.33 Y5.86 F3500.00
G1 X5.54 Y6.23 F3500.00
G1 X5.25 Y6.54 F3500.00
G1 X5.64 Y6.51 F3500.00
G1 X5.50 Y6.87 F3500.00
G1 X5.03 Y7.15 F3500.00
G1 X4.51 Y7.22 F3500.00
G1 X3.97 Y7.93 F3500.00
G1 X4.40 Y7.85 F3500.00
G1 X4.63 Y7.79 F3500.00
G1 X4.35 Y8.24 F3500.00
G1 X3.95 Y8.49 F3500.00
G1 X3.42 Y8.95 F3500.00
G1 X3.18 Y9.37 F3500.00
G1 X3.13 Y9.56 F3500.00
G1 X3.37 Y9.52 F3500.00
G1 X3.47 Y9.74 F3500.00
G1 X3.20 Y9.95 F3500.00
G1 X2.68 Y10.63 F3500.00
G1 X2.58 Y11.07 F3500.00
G1 X2.75 Y11.08 F3500.00
G1 X3.02 Y11.06 F3500.00
G1 X2.78 Y11.35 F3500.00
G1 X2.22 Y11.87 F3500.00
G1 X2.38 Y12.04 F3500.00
G1 X2.63 Y12.05 F3500.00
G1 X2.27 Y12.46 F3500.00
G1 X1.72 Y12.99 F3500.00
G1 X1.64 Y13.21 F3500.00
G1 X1.79 Y13.25 F3500.00
G1 X2.01 Y13.37 F3500.00
G1 X1.83 Y13.71 F3500.00
G1 X1.41 Y14.35 F3500.00
G1 X1.50 Y14.73 F3500.00
G1 X1.68 Y14.84 F3500.00
G1 X1.49 Y15.31 F3500.00
G1 X1.20 Y16.08 F3500.00
G1 X1.33 Y16.41 F3500.00
G1 X1.48 Y16.76 F3500.00
G1 X1.75 Y17.08 F3500.00
G1 X2.12 Y16.95 F3500.00
G1 X2.10 Y16.62 F3500.00
G1 X2.12 Y16.36 F3500.00
G1 X2.16 Y15.99 F3500.00
G1 X2.23 Y15.73 F3500.00
G1 X2.28 Y15.41 F3500.00
G1 X2.30 Y15.16 F3500.00
G1 X2.38 Y14.84 F3500.00
G1 X2.45 Y14.50 F3500.00
G1 X2.49 Y14.14 F3500.00
G1 X2.57 Y13.77 F3500.00
G1 X2.76 Y13.93 F3500.00
G1 X3.06 Y14.79 F3500.00
G1 X3.03 Y15.11 F3500.00
G1 X3.28 Y15.85 F3500.00
G1 X3.84 Y16.31 F3500.00
G1 X3.83 Y15.87 F3500.00
G1 X3.82 Y15.70 F3500.00
G1 X4.16 Y15.86 F3500.00
G1 X4.47 Y16.19 F3500.00
G1 X4.74 Y16.47 F3500.00
G1 X5.31 Y16.53 F3500.00
G1 X5.75 Y16.48 F3500.00
G1 X5.63 Y16.29 F3500.00
G1 X5.64 Y16.05 F3500.00
G1 X6.08 Y16.14 F3500.00
G1 X6.81 Y16.11 F3500.00
G1 X7.28 Y15.87 F3500.00
G1 X7.06 Y15.73 F3500.00
G1 X6.86 Y15.61 F3500.00
G1 X7.00 Y15.40 F3500.00
G1 X7.30 Y15.31 F3500.00
G1 X7.59 Y15.29 F3500.00
G1 X8.03 Y14.80 F3500.00
G1 X8.27 Y14.39 F3500.00
G1 X8.02 Y14.35 F3500.00
G1 X7.74 Y14.34 F3500.00
G1 X7.75 Y14.07 F3500.00
G1 X7.95 Y13.73 F3500.00
G1 X8.19 Y13.01 F3500.00
G1 X8.13 Y12.50 F3500.00
G1 X7.97 Y12.54 F3500.00
G1 X7.87 Y12.72 F3500.00
G1 X7.66 Y12.59 F3500.00
G1 X7.66 Y12.15 F3500.00
G1 X7.49 Y11.39 F3500.00
G1 X7.18 Y11.03 F3500.00
G1 X7.11 Y11.38 F3500.00
G1 X7.08 Y11.58 F3500.00
G1 X6.86 Y11.45 F3500.00
G1 X6.70 Y11.09 F3500.00
G1 X6.20 Y10.56 F3500.00
G1 X5.73 Y10.35 F3500.00
G1 X5.46 Y10.28 F3500.00
G1 X5.59 Y10.59 F3500.00
G1 X5.68 Y10.81 F3500.00
G1 X5.28 Y10.84 F3500.00
G1 X4.68 Y10.72 F3500.00
G1 X4.26 Y10.61 F3500.00
G1 X4.00 Y10.48 F3500.00
G1 X3.97 Y10.26 F3500.00
G1 X4.08 Y10.09 F3500.00
G1 X4.36 Y9.65 F3500.00
G1 X4.53 Y9.36 F3500.00
G1 X4.70 Y9.03 F3500.00
G1 X4.89 Y8.80 F3500.00
G1 X5.25 Y8.34 F3500.00
G1 X5.42 Y8.16 F3500.00
G1 X5.69 Y7.87 F3500.00
G1 X6.02 Y7.53 F3500.00
G1 X6.31 Y7.20 F3500.00
G1 X6.56 Y6.94 F3500.00
G1 X6.92 Y6.56 F3500.00
G1 X7.25 Y6.34 F3500.00
G1 X7.51 Y6.11 F3500.00
G1 X7.73 Y5.92 F3500.00
G1 X8.32 Y5.62 F3500.00
G1 X8.73 Y5.35 F3500.00
G1 X9.01 Y5.14 F3500.00
G1 X9.22 Y5.02 F3500.00
G1 X9.81 Y4.74 F3500.00
G1 X10.02 Y4.64 F3500.00
G1 X10.37 Y4.52 F3500.00
G1 X10.74 Y4.36 F3500.00
G1 X11.08 Y4.23 F3500.00
G1 X11.36 Y4.13 F3500.00
G1 X11.68 Y4.01 F3500.00
G1 X12.17 Y3.88 F3500.00
G1 X12.52 Y3.79 F3500.00
G1 X12.82 Y3.75 F3500.00
G1 X13.33 Y3.64 F3500.00
G1 X13.42 Y3.54 F3500.00
G1 X13.64 Y3.65 F3500.00
G1 X13.85 Y3.76 F3500.00
G1 X14.02 Y3.66 F3500.00
G1 X14.34 Y3.64 F3500.00
G1 X14.91 Y3.68 F3500.00
G1 X15.25 Y3.70 F3500.00
G1 X15.67 Y3.78 F3500.00
G1 X16.11 Y3.86 F3500.00
G1 X16.47 Y3.92 F3500.00
G1 X16.77 Y3.94 F3500.00
G1 X17.26 Y4.04 F3500.00
G1 X17.55 Y4.11 F3500.00
G1 X18.11 Y4.25 F3500.00
G1 X18.39 Y4.36 F3500.00
G1 X18.76 Y4.55 F3500.00
G1 X19.26 Y4.76 F3500.00
G1 X19.50 Y4.85 F3500.00
G1 X19.80 Y5.03 F3500.00
G1 X20.10 Y5.25 F3500.00
G1 X21.42 Y6.55 F3500.00
G1 X21.71 Y6.90 F3500.00
G1 X21.91 Y7.24 F3500.00
G1 X22.17 Y7.66 F3500.00
G1 X22.21 Y7.97 F3500.00
G1 X22.38 Y8.65 F3500.00
G1 X22.44 Y8.98 F3500.00
G1 X22.50 Y9.37 F3500.00
G1 X22.55 Y9.67 F3500.00
G1 X22.59 Y10.46 F3500.00
G1 X22.57 Y10.79 F3500.00
G1 X22.46 Y11.10 F3500.00
G1 X22.41 Y11.27 F3500.00
G1 X22.12 Y11.17 F3500.00
G1 X21.30 Y10.39 F3500.00
G1 X21.22 Y8.73 F3500.00
G1 X21.14 Y8.28 F3500.00
G1 X21.11 Y7.94 F3500.00
G1 X21.20 Y7.48 F3500.00
G1 X20.90 Y6.99 F3500.00
G1 X20.70 Y6.98 F3500.00
G1 X20.61 Y7.45 F3500.00
G1 X20.49 Y7.78 F3500.00
G1 X20.28 Y7.77 F3500.00
G1 X19.62 Y7.65 F3500.00
G1 X17.40 Y7.40 F3500.00
G1 X15.06 Y7.64 F3500.00
G1 X14.00 Y7.50 F3500.00
G1 X14.00 Y6.54 F3500.00
G1 X14.11 Y6.28 F3500.00
G1 X14.03 Y6.13 F3500.00
G1 X13.94 Y5.78 F3500.00
G1 X13.72 Y5.39 F3500.00
G1 X13.07 Y5.20 F3500.00
G1 X12.85 Y5.22 F3500.00
G1 X13.02 Y5.46 F3500.00
G1 X13.25 Y6.11 F3500.00
G1 X13.21 Y6.50 F3500.00
G1 X13.09 Y7.18 F3500.00
G1 X12.69 Y7.77 F3500.00
G1 X11.33 Y8.38 F3500.00
G1 X10.41 Y8.22 F3500.00
G1 X10.17 Y8.27 F3500.00
G1 X10.06 Y8.37 F3500.00
G1 X9.94 Y8.28 F3500.00
G1 X9.73 Y8.04 F3500.00
G1 X9.49 Y7.99 F3500.00
G1 X9.53 Y8.51 F3500.00
G1 X9.85 Y8.88 F3500.00
G1 X10.06 Y8.98 F3500.00
G1 X10.15 Y9.14 F3500.00
G1 X10.36 Y9.36 F3500.00
G1 X10.47 Y9.50 F3500.00
G1 X10.23 Y9.77 F3500.00
G1 X9.81 Y9.70 F3500.00
G1 X9.62 Y9.65 F3500.00
G1 X9.66 Y9.87 F3500.00
G1 X10.01 Y10.28 F3500.00
G1 X10.48 Y10.35 F3500.00
G1 X10.71 Y10.39 F3500.00
G1 X11.06 Y10.35 F3500.00
G1 X11.28 Y10.34 F3500.00
G1 X11.30 Y10.57 F3500.00
G1 X10.76 Y10.96 F3500.00
G1 X10.54 Y11.04 F3500.00
G1 X10.73 Y11.20 F3500.00
G1 X11.52 Y11.14 F3500.00
G1 X12.34 Y10.23 F3500.00
G1 X13.63 Y8.90 F3500.00
G1 X15.54 Y8.54 F3500.00
G1 X17.85 Y8.79 F3500.00
G1 X18.89 Y9.56 F3500.00
G1 X18.83 Y10.14 F3500.00
G1 X18.09 Y11.62 F3500.00
G1 X18.02 Y13.57 F3500.00
G1 X17.99 Y13.82 F3500.00
G1 X17.56 Y13.56 F3500.00
G1 X16.80 Y12.89 F3500.00
G1 X16.49 Y12.17 F3500.00
G1 X16.07 Y11.33 F3500.00
G1 X15.83 Y11.02 F3500.00
G1 X15.03 Y10.44 F3500.00
G1 X14.81 Y10.50 F3500.00
G1 X14.90 Y10.66 F3500.00
G1 X15.17 Y11.08 F3500.00
G1 X15.25 Y11.43 F3500.00
G1 X14.86 Y11.64 F3500.00
G1 X12.32 Y13.22 F3500.00
G1 X10.85 Y14.69 F3500.00
G1 X10.10 Y15.28 F3500.00
G1 X10.00 Y14.47 F3500.00
G1 X9.92 Y14.16 F3500.00
G1 X9.75 Y13.95 F3500.00
G1 X9.44 Y13.64 F3500.00
G1 X8.97 Y13.64 F3500.00
G1 X8.75 Y13.77 F3500.00
G1 X8.98 Y14.05 F3500.00
G1 X9.18 Y14.45 F3500.00
G1 X9.14 Y14.87 F3500.00
G1 X9.30 Y15.69 F3500.00
G1 X9.08 Y16.52 F3500.00
G1 X8.51 Y17.28 F3500.00
G1 X7.64 Y17.89 F3500.00
G1 X7.10 Y18.25 F3500.00
G1 X6.79 Y18.43 F3500.00
G1 X6.39 Y18.31 F3500.00
G1 X6.16 Y18.23 F3500.00
G1 X6.22 Y18.50 F3500.00
G1 X6.58 Y18.89 F3500.00
G1 X7.09 Y18.88 F3500.00
G1 X7.21 Y18.95 F3500.00
G1 X7.40 Y19.20 F3500.00
G1 X7.81 Y19.12 F3500.00
G1 X7.89 Y19.51 F3500.00
G1 X7.63 Y19.67 F3500.00
G1 X7.31 Y19.82 F3500.00
G1 X7.33 Y20.03 F3500.00
G1 X7.92 Y20.09 F3500.00
G1 X8.28 Y19.81 F3500.00
G1 X8.41 Y19.72 F3500.00
G1 X8.83 Y19.75 F3500.00
G1 X9.01 Y19.50 F3500.00
G1 X9.25 Y19.45 F3500.00
G1 X9.29 Y19.63 F3500.00
G1 X9.16 Y19.92 F3500.00
G1 X8.98 Y20.19 F3500.00
G1 X9.16 Y20.32 F3500.00
G1 X9.63 Y20.10 F3500.00
G1 X9.85 Y19.69 F3500.00
G1 X9.91 Y19.48 F3500.00
G1 X9.99 Y18.99 F3500.00
G1 X10.47 Y16.97 F3500.00
G1 X11.43 Y15.37 F3500.00
G1 X12.67 Y14.35 F3500.00
G1 X14.36 Y13.41 F3500.00
G1 X14.67 Y13.27 F3500.00
G1 X14.77 Y13.39 F3500.00
G1 X14.70 Y14.10 F3500.00
G1 X14.54 Y15.01 F3500.00
G1 X14.68 Y15.61 F3500.00
G1 X14.67 Y15.79 F3500.00
G1 X14.05 Y15.88 F3500.00
G1 X13.65 Y15.95 F3500.00
G1 X13.54 Y16.20 F3500.00
G1 X12.81 Y16.80 F3500.00
G1 X12.61 Y16.85 F3500.00
G1 X12.59 Y17.17 F3500.00
G1 X12.45 Y17.66 F3500.00
G1 X12.01 Y18.01 F3500.00
G1 X11.81 Y18.12 F3500.00
G1 X11.79 Y18.44 F3500.00
G1 X11.42 Y19.08 F3500.00
G1 X11.22 Y19.17 F3500.00
G1 X11.20 Y19.59 F3500.00
G1 X10.94 Y20.30 F3500.00
G1 X10.69 Y20.81 F3500.00
G1 X10.34 Y21.34 F3500.00
G1 X10.12 Y21.67 F3500.00
G1 X9.63 Y22.39 F3500.00
G1 X9.43 Y22.63 F3500.00
G1 X8.75 Y23.16 F3500.00
G1 X8.44 Y23.34 F3500.00
G1 X7.88 Y23.69 F3500.00
G1 X7.23 Y23.64 F3500.00
G1 X6.81 Y23.67 F3500.00
G1 X6.20 Y23.76 F3500.00
G1 X5.81 Y23.49 F3500.00
G1 X5.33 Y23.20 F3500.00
G1 X4.79 Y22.94 F3500.00
G1 X4.72 Y22.54 F3500.00
G1 X4.14 Y22.08 F3500.00
G1 X3.58 Y21.46 F3500.00
G1 X3.57 Y21.15 F3500.00
G1 X3.91 Y21.24 F3500.00
G1 X4.15 Y21.33 F3500.00
G1 X4.05 Y21.11 F3500.00
G1 X3.82 Y20.55 F3500.00
G1 X4.17 Y20.58 F3500.00
G1 X4.46 Y20.70 F3500.00
G1 X4.32 Y20.42 F3500.00
G1 X3.94 Y19.79 F3500.00
G1 X4.12 Y19.39 F3500.00
G1 X4.22 Y19.19 F3500.00
G1 X4.30 Y18.93 F3500.00
G1 X4.37 Y18.78 F3500.00
G1 X3.84 Y18.88 F3500.00
G1 X3.45 Y19.01 F3500.00
G1 X3.42 Y19.17 F3500.00
G1 X3.38 Y19.32 F3500.00
G1 X3.29 Y19.60 F3500.00
G1 X3.25 Y19.84 F3500.00
G1 X3.19 Y20.02 F3500.00
G1 X3.17 Y20.20 F3500.00
G1 X3.14 Y20.37 F3500.00
G1 X3.13 Y20.55 F3500.00
G1 X3.11 Y20.74 F3500.00
G1 X3.08 Y20.92 F3500.00
G1 X3.05 Y21.08 F3500.00
G1 X3.06 Y21.35 F3500.00
G1 X2.69 Y21.29 F3500.00
G1 X2.78 Y20.16 F3500.00
G1 X2.95 Y18.57 F3500.00
G1 X2.59 Y17.84 F3500.00
G1 X2.31 Y17.82 F3500.00
G1 X2.10 Y18.03 F3500.00
G1 X1.89 Y18.19 F3500.00
G1 X2.16 Y18.26 F3500.00
G1 X2.72 Y18.63 F3500.00
G1 X2.74 Y19.66 F3500.00
G1 X2.30 Y20.66 F3500.00
G1 X2.15 Y20.33 F3500.00
G1 X2.16 Y20.16 F3500.00
G1 X2.10 Y19.91 F3500.00
G1 X2.22 Y19.79 F3500.00
G1 X2.10 Y19.71 F3500.00
G1 X2.06 Y19.51 F3500.00
G1 X2.00 Y19.32 F3500.00
G1 X1.81 Y19.25 F3500.00
G1 X1.90 Y19.04 F3500.00
G1 X2.01 Y18.90 F3500.00
G1 X1.86 Y18.90 F3500.00
G1 X1.64 Y18.98 F3500.00
G1 X1.49 Y19.07 F3500.00
G1 X1.29 Y19.40 F3500.00
G1 X1.52 Y19.93 F3500.00
G1 X1.67 Y20.60 F3500.00
G1 X1.81 Y21.29 F3500.00
G1 X1.92 Y21.52 F3500.00
G1 X1.79 Y21.71 F3500.00
G1 X1.70 Y22.10 F3500.00
G1 X2.11 Y22.86 F3500.00
G1 X2.74 Y24.25 F3500.00
G1 X3.22 Y25.50 F3500.00
G1 X3.54 Y25.86 F3500.00
G1 X3.50 Y25.47 F3500.00
G1 X3.36 Y25.09 F3500.00
G1 X3.16 Y24.55 F3500.00
G1 X3.12 Y24.30 F3500.00
G1 X2.95 Y23.89 F3500.00
G1 X3.18 Y23.75 F3500.00
G1 X3.32 Y23.92 F3500.00
G1 X4.18 Y24.79 F3500.00
G1 X4.63 Y25.26 F3500.00
G1 X4.64 Y25.05 F3500.00
G1 X4.51 Y24.26 F3500.00
G1 X4.73 Y24.37 F3500.00
G1 X5.06 Y24.55 F3500.00
G1 X5.27 Y24.78 F3500.00
G1 X6.17 Y25.46 F3500.00
G1 X6.35 Y25.43 F3500.00
G1 X6.16 Y25.19 F3500.00
G1 X6.01 Y24.97 F3500.00
G1 X6.25 Y24.95 F3500.00
G1 X6.74 Y25.20 F3500.00
G1 X7.49 Y25.51 F3500.00
G1 X7.80 Y25.45 F3500.00
G1 X7.61 Y25.27 F3500.00
G1 X7.47 Y25.07 F3500.00
G1 X8.12 Y25.16 F3500.00
G1 X9.02 Y25.25 F3500.00
G1 X9.14 Y25.13 F3500.00
G1 X8.91 Y25.01 F3500.00
G1 X8.77 Y24.89 F3500.00
G1 X9.02 Y24.73 F3500.00
G1 X9.27 Y24.63 F3500.00
G1 X9.40 Y24.76 F3500.00
G1 X10.00 Y24.81 F3500.00
G1 X10.43 Y24.51 F3500.00
G1 X10.09 Y24.44 F3500.00
G1 X9.81 Y24.40 F3500.00
G1 X10.12 Y24.11 F3500.00
G1 X10.40 Y23.90 F3500.00
G1 X10.61 Y23.98 F3500.00
G1 X11.38 Y23.83 F3500.00
G1 X11.63 Y23.63 F3500.00
G1 X11.24 Y23.59 F3500.00
G1 X10.86 Y23.55 F3500.00
G1 X11.31 Y22.94 F3500.00
G1 X12.01 Y23.01 F3500.00
G1 X12.15 Y23.21 F3500.00
G1 X12.15 Y23.83 F3500.00
G1 X12.13 Y24.20 F3500.00
G1 X12.24 Y24.99 F3500.00
G1 X12.34 Y25.42 F3500.00
G1 X12.40 Y26.44 F3500.00
G1 X12.32 Y26.57 F3500.00
G1 X12.45 Y26.71 F3500.00
G1 X12.71 Y27.18 F3500.00
G1 X12.55 Y27.62 F3500.00
G1 X12.55 Y27.98 F3500.00
G1 X12.67 Y28.41 F3500.00
G1 X12.44 Y28.84 F3500.00
G1 X12.13 Y29.26 F3500.00
G1 X11.95 Y29.74 F3500.00
G1 X11.55 Y29.95 F3500.00
G1 X10.98 Y30.18 F3500.00
G1 X10.53 Y30.44 F3500.00
G1 X10.06 Y30.34 F3500.00
G1 X9.82 Y30.15 F3500.00
G1 X10.11 Y29.99 F3500.00
G1 X10.42 Y29.84 F3500.00
G1 X10.30 Y29.78 F3500.00
G1 X9.12 Y29.27 F3500.00
G1 X8.89 Y29.00 F3500.00
G1 X9.17 Y28.97 F3500.00
G1 X9.48 Y28.93 F3500.00
G1 X9.05 Y28.71 F3500.00
G1 X8.39 Y28.16 F3500.00
G1 X8.49 Y28.12 F3500.00
G1 X9.11 Y28.14 F3500.00
G1 X8.53 Y27.91 F3500.00
G1 X8.05 Y27.62 F3500.00
G1 X8.02 Y27.17 F3500.00
G1 X7.94 Y26.99 F3500.00
G1 X7.70 Y26.92 F3500.00
G1 X7.55 Y27.06 F3500.00
G1 X7.38 Y27.23 F3500.00
G1 X7.35 Y27.40 F3500.00
G1 X7.41 Y27.58 F3500.00
G1 X7.47 Y27.80 F3500.00
G1 X7.57 Y27.90 F3500.00
G1 X7.68 Y28.07 F3500.00
G1 X7.76 Y28.25 F3500.00
G1 X7.85 Y28.39 F3500.00
G1 X7.93 Y28.52 F3500.00
G1 X8.01 Y28.65 F3500.00
G1 X8.15 Y28.82 F3500.00
G1 X8.39 Y29.00 F3500.00
G1 X8.49 Y29.18 F3500.00
G1 X8.33 Y29.38 F3500.00
G1 X7.97 Y29.17 F3500.00
G1 X7.06 Y27.88 F3500.00
G1 X6.38 Y26.98 F3500.00
G1 X5.64 Y26.79 F3500.00
G1 X5.46 Y26.98 F3500.00
G1 X5.44 Y27.32 F3500.00
G1 X5.36 Y27.58 F3500.00
G1 X5.54 Y27.51 F3500.00
G1 X6.34 Y27.34 F3500.00
G1 X7.23 Y28.31 F3500.00
G1 X7.91 Y29.21 F3500.00
G1 X8.27 Y29.76 F3500.00
G1 X7.94 Y29.82 F3500.00
G1 X7.60 Y29.50 F3500.00
G1 X7.49 Y29.28 F3500.00
G1 X7.33 Y29.12 F3500.00
G1 X7.13 Y29.00 F3500.00
G1 X6.96 Y28.81 F3500.00
G1 X6.85 Y28.69 F3500.00
G1 X6.69 Y28.48 F3500.00
G1 X6.52 Y28.44 F3500.00
G1 X6.32 Y28.24 F3500.00
G1 X6.20 Y28.10 F3500.00
G1 X6.01 Y28.07 F3500.00
G1 X6.04 Y27.78 F3500.00
G1 X5.76 Y27.90 F3500.00
G1 X5.51 Y28.15 F3500.00
G1 X5.41 Y28.39 F3500.00
G1 X6.05 Y29.02 F3500.00
G1 X6.48 Y29.46 F3500.00
G1 X6.85 Y29.84 F3500.00
G1 X7.06 Y30.16 F3500.00
G1 X7.27 Y30.55 F3500.00
G1 X8.18 Y31.01 F3500.00
G1 X9.55 Y31.86 F3500.00
G1 X10.67 Y32.57 F3500.00
G1 X11.00 Y32.66 F3500.00
G1 X10.74 Y32.44 F3500.00
G1 X10.35 Y31.92 F3500.00
G1 X10.73 Y31.93 F3500.00
G1 X11.65 Y32.08 F3500.00
G1 X11.58 Y31.89 F3500.00
G1 X11.61 Y31.69 F3500.00
G1 X11.92 Y31.72 F3500.00
G1 X12.49 Y31.69 F3500.00
G1 X12.59 Y31.43 F3500.00
G1 X12.45 Y31.32 F3500.00
G1 X12.69 Y31.08 F3500.00
G1 X12.88 Y31.06 F3500.00
G1 X13.52 Y30.83 F3500.00
G1 X13.62 Y30.67 F3500.00
G1 X13.39 Y30.65 F3500.00
G1 X13.18 Y30.62 F3500.00
G1 X13.32 Y30.35 F3500.00
G1 X13.58 Y30.15 F3500.00
G1 X14.15 Y29.58 F3500.00
G1 X13.86 Y29.55 F3500.00
G1 X13.79 Y29.34 F3500.00
G1 X14.09 Y29.00 F3500.00
G1 X14.39 Y28.41 F3500.00
G1 X14.24 Y28.20 F3500.00
G1 X14.04 Y28.13 F3500.00
G1 X14.07 Y27.88 F3500.00
G1 X14.19 Y27.68 F3500.00
G1 X14.40 Y27.24 F3500.00
G1 X14.35 Y26.90 F3500.00
G1 X14.20 Y26.96 F3500.00
G1 X13.96 Y26.71 F3500.00
G1 X14.08 Y26.17 F3500.00
G1 X14.50 Y26.50 F3500.00
G1 X15.07 Y26.81 F3500.00
G1 X15.52 Y27.21 F3500.00
G1 X16.02 Y27.55 F3500.00
G1 X16.54 Y27.93 F3500.00
G1 X16.64 Y28.12 F3500.00
G1 X16.90 Y28.15 F3500.00
G1 X17.57 Y28.54 F3500.00
G1 X17.74 Y28.80 F3500.00
G1 X18.04 Y28.83 F3500.00
G1 X18.61 Y29.13 F3500.00
G1 X18.98 Y29.42 F3500.00
G1 X19.43 Y29.99 F3500.00
G1 X19.61 Y30.47 F3500.00
G1 X19.63 Y31.07 F3500.00
G1 X19.42 Y31.70 F3500.00
G1 X19.10 Y32.36 F3500.00
G1 X18.34 Y32.65 F3500.00
G1 X18.54 Y31.96 F3500.00
G1 X18.56 Y31.81 F3500.00
G1 X18.03 Y32.04 F3500.00
G1 X17.40 Y32.27 F3500.00
G1 X17.25 Y32.13 F3500.00
G1 X17.63 Y31.78 F3500.00
G1 X17.35 Y31.79 F3500.00
G1 X16.34 Y31.76 F3500.00
G1 X16.46 Y31.62 F3500.00
G1 X17.17 Y31.25 F3500.00
G1 X16.94 Y31.15 F3500.00
G1 X16.33 Y31.34 F3500.00
G1 X15.62 Y31.56 F3500.00
G1 X15.38 Y31.22 F3500.00
G1 X15.11 Y31.16 F3500.00
G1 X14.82 Y31.08 F3500.00
G1 X14.63 Y31.03 F3500.00
G1 X14.64 Y31.21 F3500.00
G1 X14.55 Y31.49 F3500.00
G1 X14.54 Y31.79 F3500.00
G1 X14.79 Y31.88 F3500.00
G1 X14.96 Y31.94 F3500.00
G1 X15.16 Y32.00 F3500.00
G1 X15.37 Y32.05 F3500.00
G1 X15.54 Y32.18 F3500.00
G1 X15.67 Y32.21 F3500.00
G1 X15.86 Y32.28 F3500.00
G1 X16.03 Y32.31 F3500.00
G1 X16.21 Y32.33 F3500.00
G1 X16.43 Y32.37 F3500.00
G1 X16.75 Y32.48 F3500.00
G1 X16.67 Y32.76 F3500.00
G1 X16.54 Y32.87 F3500.00
G1 X16.71 Y32.84 F3500.00
G1 X16.97 Y32.97 F3500.00
G1 X16.77 Y33.34 F3500.00
G1 X16.11 Y33.36 F3500.00
G1 X15.91 Y33.28 F3500.00
G1 X15.65 Y33.24 F3500.00
G1 X15.43 Y33.22 F3500.00
G1 X15.18 Y33.16 F3500.00
G1 X14.95 Y33.17 F3500.00
G1 X14.87 Y33.26 F3500.00
G1 X14.74 Y33.11 F3500.00
G1 X14.59 Y33.02 F3500.00
G1 X14.49 Y33.16 F3500.00
G1 X14.42 Y33.26 F3500.00
G1 X14.34 Y33.16 F3500.00
G1 X14.17 Y33.07 F3500.00
G1 X14.13 Y33.31 F3500.00
G1 X14.36 Y33.76 F3500.00
G1 X14.91 Y33.83 F3500.00
G1 X15.93 Y33.83 F3500.00
G1 X16.49 Y33.93 F3500.00
G1 X16.80 Y34.05 F3500.00
G1 X17.18 Y34.25 F3500.00
G1 X17.91 Y34.10 F3500.00
G1 X19.53 Y33.97 F3500.00
G1 X21.13 Y33.79 F3500.00
G1 X20.84 Y33.65 F3500.00
G1 X20.10 Y33.66 F3500.00
G1 X19.80 Y33.69 F3500.00
G1 X19.39 Y33.62 F3500.00
G1 X19.50 Y33.41 F3500.00
G1 X19.90 Y33.21 F3500.00
G1 X20.24 Y33.14 F3500.00
G1 X20.94 Y32.81 F3500.00
G1 X21.07 Y32.58 F3500.00
G1 X20.85 Y32.52 F3500.00
G1 X20.67 Y32.48 F3500.00
G1 X20.82 Y32.20 F3500.00
G1 X21.10 Y31.98 F3500.00
G1 X21.56 Y31.39 F3500.00
G1 X21.60 Y31.14 F3500.00
G1 X21.40 Y31.15 F3500.00
G1 X21.15 Y31.08 F3500.00
G1 X21.30 Y30.77 F3500.00
G1 X21.51 Y30.49 F3500.00
G1 X21.43 Y30.05 F3500.00
G1 X21.11 Y29.69 F3500.00
G1 X20.84 Y29.60 F3500.00
G1 X20.79 Y29.22 F3500.00
G1 X20.83 Y28.89 F3500.00
G1 X20.54 Y28.52 F3500.00
G1 X20.22 Y28.49 F3500.00
G1 X19.95 Y28.49 F3500.00
G1 X19.85 Y28.20 F3500.00
G1 X19.59 Y27.70 F3500.00
G1 X19.26 Y27.45 F3500.00
G1 X19.21 Y27.69 F3500.00
G1 X19.18 Y27.91 F3500.00
G1 X18.94 Y27.79 F3500.00
G1 X18.67 Y27.46 F3500.00
G1 X18.42 Y26.94 F3500.00
G1 X18.06 Y26.69 F3500.00
G1 X18.08 Y27.08 F3500.00
G1 X17.80 Y27.03 F3500.00
G1 X17.59 Y26.89 F3500.00
G1 X17.60 Y26.68 F3500.00
G1 X17.50 Y26.35 F3500.00
G1 X16.93 Y25.94 F3500.00
G1 X16.90 Y26.16 F3500.00
G1 X16.65 Y26.25 F3500.00
G1 X16.52 Y25.88 F3500.00
G1 X16.21 Y25.35 F3500.00
G1 X15.90 Y25.14 F3500.00
G1 X15.85 Y25.36 F3500.00
G1 X15.83 Y25.58 F3500.00
G1 X15.65 Y25.47 F3500.00
G1 X15.50 Y25.08 F3500.00
G1 X15.44 Y24.54 F3500.00
G1 X15.25 Y24.24 F3500.00
G1 X15.03 Y24.31 F3500.00
G1 X14.89 Y24.47 F3500.00
G1 X14.73 Y24.28 F3500.00
G1 X14.79 Y23.79 F3500.00
G1 X14.95 Y23.64 F3500.00
G1 X14.89 Y23.31 F3500.00
G1 X14.83 Y22.92 F3500.00
G1 X14.60 Y22.95 F3500.00
G1 X14.44 Y23.01 F3500.00
G1 X14.41 Y22.71 F3500.00
G1 X14.43 Y22.38 F3500.00
G1 X14.61 Y22.28 F3500.00
G1 X14.97 Y21.68 F3500.00
G1 X14.88 Y21.38 F3500.00
G1 X14.71 Y21.25 F3500.00
G1 X14.72 Y21.07 F3500.00
G1 X15.21 Y21.07 F3500.00
G1 X15.91 Y20.96 F3500.00
G1 X15.73 Y20.75 F3500.00
G1 X15.52 Y20.62 F3500.00
G1 X15.80 Y20.55 F3500.00
G1 X16.41 Y20.64 F3500.00
G1 X17.27 Y20.76 F3500.00
G1 X17.44 Y20.65 F3500.00
G1 X17.29 Y20.54 F3500.00
G1 X17.09 Y20.36 F3500.00
G1 X17.40 Y20.22 F3500.00
G1 X18.01 Y20.63 F3500.00
G1 X18.73 Y21.80 F3500.00
G1 X18.91 Y22.84 F3500.00
G1 X18.56 Y23.73 F3500.00
G1 X17.68 Y24.47 F3500.00
G1 X17.42 Y24.80 F3500.00
G1 X18.08 Y25.26 F3500.00
G1 X20.66 Y26.13 F3500.00
G1 X23.53 Y26.19 F3500.00
G1 X26.43 Y25.45 F3500.00
G1 X29.10 Y23.96 F3500.00
G1 X31.16 Y22.00 F3500.00
G1 X32.59 Y19.73 F3500.00
G1 X33.39 Y17.25 F3500.00
G1 X33.58 Y14.64 F3500.00
G1 X33.15 Y12.00 F3500.00
G1 X32.11 Y9.41 F3500.00
G1 X30.47 Y6.96 F3500.00
G1 X28.22 Y4.73 F3500.00
G1 X27.72 Y4.37 F3500.00
G1 X28.32 Y5.00 F3500.00
G1 X30.45 Y7.45 F3500.00
G1 X31.67 Y9.82 F3500.00
G1 X31.98 Y11.61 F3500.00
G1 X31.83 Y12.16 F3500.00
G1 X31.48 Y12.40 F3500.00
G1 X31.32 Y12.48 F3500.00
G1 X31.47 Y12.89 F3500.00
G1 X31.87 Y15.23 F3500.00
G1 X31.71 Y16.32 F3500.00
G1 X31.32 Y17.08 F3500.00
G1 X30.23 Y17.33 F3500.00
G1 X30.09 Y17.72 F3500.00
G1 X29.55 Y20.42 F3500.00
G1 X28.46 Y21.54 F3500.00
G1 X27.93 Y21.55 F3500.00
G1 X27.53 Y21.16 F3500.00
G1 X27.38 Y21.01 F3500.00
G1 X27.06 Y21.39 F3500.00
G1 X26.02 Y22.51 F3500.00
G1 X25.03 Y23.08 F3500.00
G1 X24.28 Y23.04 F3500.00
G1 X23.94 Y22.34 F3500.00
G1 X23.92 Y21.96 F3500.00
G1 X23.77 Y22.09 F3500.00
G1 X22.83 Y22.61 F3500.00
G1 X22.01 Y22.61 F3500.00
G1 X21.53 Y22.14 F3500.00
G1 X21.57 Y21.28 F3500.00
G1 X21.64 Y20.96 F3500.00
G1 X21.23 Y20.92 F3500.00
G1 X20.08 Y20.49 F3500.00
G1 X19.91 Y20.28 F3500.00
G1 X20.17 Y20.23 F3500.00
G1 X20.44 Y20.16 F3500.00
G1 X20.25 Y20.00 F3500.00
G1 X20.18 Y19.79 F3500.00
G1 X21.27 Y19.76 F3500.00
G1 X22.38 Y19.63 F3500.00
G1 X22.28 Y19.57 F3500.00
G1 X22.18 Y19.38 F3500.00
G1 X22.13 Y19.19 F3500.00
G1 X22.08 Y18.95 F3500.00
G1 X22.56 Y18.95 F3500.00
G1 X24.00 Y19.78 F3500.00
G1 X24.64 Y21.05 F3500.00
G1 X24.74 Y21.49 F3500.00
G1 X25.49 Y21.18 F3500.00
G1 X26.62 Y20.17 F3500.00
G1 X28.77 Y17.36 F3500.00
G1 X29.83 Y14.59 F3500.00
G1 X30.12 Y11.83 F3500.00
G1 X29.69 Y9.17 F3500.00
G1 X28.60 Y6.71 F3500.00
G1 X26.93 Y4.56 F3500.00
G1 X24.72 Y2.82 F3500.00
G1 X22.04 Y1.59 F3500.00
G1 X18.94 Y0.97 F3500.00
G1 X18.24 Y0.89 F3500.00
G1 X15.97 Y0.84 F3500.00
G1 X15.97 Y0.84 F3500.00
M300 S50.00 (pen up)
G4 P150 (wait 150ms)

(Polyline consisting of 11 segments.)
G1 X5.11 Y11.50 F3500.00
M300 S30.00 (pen down)
G4 P150 (wait 150ms)
G1 X5.38 Y11.52 F3500.00
G1 X5.67 Y11.57 F3500.00
G1 X6.12 Y11.77 F3500.00
G1 X6.36 Y11.89 F3500.00
G1 X6.63 Y12.08 F3500.00
G1 X6.77 Y12.26 F3500.00
G1 X6.85 Y12.51 F3500.00
G1 X6.94 Y12.73 F3500.00
G1 X7.03 Y12.99 F3500.00
G1 X7.05 Y13.31 F3500.00
G1 X7.02 Y13.61 F3500.00
G1 X6.98 Y13.89 F3500.00
G1 X6.86 Y14.19 F3500.00
G1 X6.30 Y14.83 F3500.00
G1 X6.12 Y14.98 F3500.00
G1 X5.90 Y15.08 F3500.00
G1 X5.64 Y15.12 F3500.00
G1 X5.38 Y15.17 F3500.00
G1 X5.08 Y15.19 F3500.00
G1 X4.77 Y15.16 F3500.00
G1 X4.50 Y15.10 F3500.00
G1 X4.32 Y15.03 F3500.00
G1 X4.03 Y14.85 F3500.00
G1 X3.75 Y14.54 F3500.00
G1 X3.60 Y14.24 F3500.00
G1 X3.47 Y13.96 F3500.00
G1 X3.35 Y13.68 F3500.00
G1 X3.30 Y13.28 F3500.00
G1 X3.25 Y12.82 F3500.00
G1 X3.17 Y12.65 F3500.00
G1 X3.29 Y12.42 F3500.00
G1 X3.52 Y12.12 F3500.00
G1 X3.68 Y11.98 F3500.00
G1 X4.51 Y11.66 F3500.00
G1 X4.84 Y11.52 F3500.00
G1 X5.11 Y11.50 F3500.00
G1 X5.11 Y11.50 F3500.00
M300 S50.00 (pen up)
G4 P150 (wait 150ms)

(Polyline consisting of 11 segments.)
G1 X1.70 Y19.44 F3500.00
M300 S30.00 (pen down)
G4 P150 (wait 150ms)
G1 X1.70 Y19.82 F3500.00
G1 X1.46 Y19.29 F3500.00
G1 X1.70 Y19.44 F3500.00
G1 X1.70 Y19.44 F3500.00
M300 S50.00 (pen up)
G4 P150 (wait 150ms)

(Polyline consisting of 11 segments.)
G1 X2.24 Y21.73 F3500.00
M300 S30.00 (pen down)
G4 P150 (wait 150ms)
G1 X2.19 Y22.53 F3500.00
G1 X1.83 Y22.02 F3500.00
G1 X1.98 Y21.64 F3500.00
G1 X2.24 Y21.73 F3500.00
G1 X2.24 Y21.73 F3500.00
M300 S50.00 (pen up)
G4 P150 (wait 150ms)

(Polyline consisting of 11 segments.)
G1 X5.83 Y28.28 F3500.00
M300 S30.00 (pen down)
G4 P150 (wait 150ms)
G1 X6.14 Y28.57 F3500.00
G1 X6.03 Y28.76 F3500.00
G1 X5.55 Y28.44 F3500.00
G1 X5.57 Y28.25 F3500.00
G1 X5.83 Y28.28 F3500.00
G1 X5.83 Y28.28 F3500.00
M300 S50.00 (pen up)
G4 P150 (wait 150ms)

(Polyline consisting of 11 segments.)
G1 X7.97 Y30.15 F3500.00
M300 S30.00 (pen down)
G4 P150 (wait 150ms)
G1 X8.16 Y30.69 F3500.00
G1 X7.71 Y30.67 F3500.00
G1 X7.43 Y30.02 F3500.00
G1 X7.97 Y30.15 F3500.00
G1 X7.97 Y30.15 F3500.00
M300 S50.00 (pen up)
G4 P150 (wait 150ms)

(Polyline consisting of 11 segments.)
G1 X15.31 Y33.46 F3500.00
M300 S30.00 (pen down)
G4 P150 (wait 150ms)
G1 X14.70 Y33.75 F3500.00
G1 X14.39 Y33.63 F3500.00
G1 X14.46 Y33.45 F3500.00
G1 X15.31 Y33.46 F3500.00
G1 X15.31 Y33.46 F3500.00
M300 S50.00 (pen up)
G4 P150 (wait 150ms)

(Polyline consisting of 11 segments.)
G1 X17.62 Y33.63 F3500.00
M300 S30.00 (pen down)
G4 P150 (wait 150ms)
G1 X17.77 Y33.82 F3500.00
G1 X17.53 Y33.96 F3500.00
G1 X17.01 Y33.90 F3500.00
G1 X16.85 Y33.64 F3500.00
G1 X17.62 Y33.63 F3500.00
G1 X17.62 Y33.63 F3500.00
M300 S50.00 (pen up)
G4 P150 (wait 150ms)

(Polyline consisting of 11 segments.)
G1 X34.49 Y15.95 F3500.00
M300 S30.00 (pen down)
G4 P150 (wait 150ms)
G1 X34.34 Y16.55 F3500.00
G1 X33.01 Y20.20 F3500.00
G1 X32.75 Y20.96 F3500.00
G1 X32.89 Y21.12 F3500.00
G1 X32.40 Y21.73 F3500.00
G1 X31.91 Y22.29 F3500.00
G1 X32.08 Y22.33 F3500.00
G1 X32.28 Y22.39 F3500.00
G1 X31.89 Y22.80 F3500.00
G1 X31.25 Y23.48 F3500.00
G1 X31.48 Y23.55 F3500.00
G1 X31.75 Y23.61 F3500.00
G1 X31.20 Y24.08 F3500.00
G1 X30.40 Y24.69 F3500.00
G1 X30.60 Y24.87 F3500.00
G1 X30.86 Y25.05 F3500.00
G1 X30.23 Y25.51 F3500.00
G1 X29.34 Y26.19 F3500.00
G1 X29.55 Y26.24 F3500.00
G1 X29.77 Y26.31 F3500.00
G1 X29.70 Y26.48 F3500.00
G1 X28.96 Y26.83 F3500.00
G1 X28.57 Y27.05 F3500.00
G1 X28.71 Y27.21 F3500.00
G1 X28.98 Y27.38 F3500.00
G1 X28.50 Y27.63 F3500.00
G1 X27.78 Y27.85 F3500.00
G1 X27.80 Y28.11 F3500.00
G1 X27.91 Y28.32 F3500.00
G1 X27.67 Y28.47 F3500.00
G1 X27.42 Y28.69 F3500.00
G1 X27.55 Y28.81 F3500.00
G1 X27.48 Y29.04 F3500.00
G1 X27.20 Y29.26 F3500.00
G1 X26.81 Y29.45 F3500.00
G1 X26.53 Y29.54 F3500.00
G1 X26.52 Y29.11 F3500.00
G1 X26.57 Y28.97 F3500.00
G1 X26.79 Y29.00 F3500.00
G1 X27.06 Y28.85 F3500.00
G1 X26.73 Y28.20 F3500.00
G1 X26.65 Y27.72 F3500.00
G1 X26.66 Y27.42 F3500.00
G1 X25.85 Y26.98 F3500.00
G1 X25.78 Y26.81 F3500.00
G1 X25.47 Y26.53 F3500.00
G1 X24.62 Y26.60 F3500.00
G1 X24.16 Y26.60 F3500.00
G1 X23.56 Y26.64 F3500.00
G1 X22.94 Y27.26 F3500.00
G1 X22.68 Y27.52 F3500.00
G1 X22.45 Y27.64 F3500.00
G1 X22.34 Y28.27 F3500.00
G1 X22.09 Y28.90 F3500.00
G1 X21.96 Y29.18 F3500.00
G1 X22.44 Y29.85 F3500.00
G1 X22.76 Y30.19 F3500.00
G1 X22.67 Y30.31 F3500.00
G1 X22.73 Y30.57 F3500.00
G1 X23.42 Y30.79 F3500.00
G1 X23.92 Y31.02 F3500.00
G1 X23.79 Y31.12 F3500.00
G1 X23.36 Y31.24 F3500.00
G1 X22.92 Y31.38 F3500.00
G1 X22.64 Y31.53 F3500.00
G1 X22.35 Y31.67 F3500.00
G1 X21.79 Y31.98 F3500.00
G1 X21.71 Y32.40 F3500.00
G1 X22.96 Y32.35 F3500.00
G1 X23.31 Y32.42 F3500.00
G1 X23.68 Y32.37 F3500.00
G1 X23.89 Y32.13 F3500.00
G1 X24.24 Y31.81 F3500.00
G1 X24.68 Y31.71 F3500.00
G1 X24.67 Y31.95 F3500.00
G1 X25.04 Y31.72 F3500.00
G1 X25.34 Y31.18 F3500.00
G1 X25.60 Y30.84 F3500.00
G1 X26.13 Y30.79 F3500.00
G1 X26.39 Y30.89 F3500.00
G1 X27.37 Y30.17 F3500.00
G1 X27.85 Y30.00 F3500.00
G1 X27.95 Y30.09 F3500.00
G1 X28.13 Y29.90 F3500.00
G1 X28.67 Y29.29 F3500.00
G1 X29.31 Y28.60 F3500.00
G1 X29.50 Y28.64 F3500.00
G1 X29.72 Y28.61 F3500.00
G1 X30.19 Y27.81 F3500.00
G1 X30.56 Y27.16 F3500.00
G1 X30.70 Y27.29 F3500.00
G1 X30.91 Y27.32 F3500.00
G1 X31.35 Y26.42 F3500.00
G1 X31.61 Y25.85 F3500.00
G1 X31.76 Y25.88 F3500.00
G1 X32.05 Y25.66 F3500.00
G1 X32.29 Y24.60 F3500.00
G1 X32.42 Y24.04 F3500.00
G1 X32.81 Y24.38 F3500.00
G1 X32.99 Y23.84 F3500.00
G1 X33.10 Y22.84 F3500.00
G1 X33.28 Y22.95 F3500.00
G1 X33.48 Y23.07 F3500.00
G1 X33.55 Y22.29 F3500.00
G1 X33.62 Y21.51 F3500.00
G1 X33.85 Y21.53 F3500.00
G1 X34.03 Y21.59 F3500.00
G1 X34.16 Y21.23 F3500.00
G1 X34.40 Y18.43 F3500.00
G1 X34.53 Y16.90 F3500.00
G1 X34.58 Y16.16 F3500.00
G1 X34.49 Y15.95 F3500.00
G1 X34.49 Y15.95 F3500.00
M300 S50.00 (pen up)
G4 P150 (wait 150ms)

(Polyline consisting of 11 segments.)
G1 X24.85 Y27.71 F3500.00
M300 S30.00 (pen down)
G4 P150 (wait 150ms)
G1 X25.41 Y28.04 F3500.00
G1 X25.67 Y28.56 F3500.00
G1 X25.72 Y28.78 F3500.00
G1 X25.69 Y29.01 F3500.00
G1 X25.63 Y29.35 F3500.00
G1 X25.53 Y29.87 F3500.00
G1 X25.17 Y30.03 F3500.00
G1 X24.83 Y30.03 F3500.00
G1 X24.04 Y29.80 F3500.00
G1 X23.76 Y29.61 F3500.00
G1 X23.63 Y29.56 F3500.00
G1 X23.54 Y29.30 F3500.00
G1 X23.48 Y28.53 F3500.00
G1 X23.56 Y28.27 F3500.00
G1 X23.68 Y28.03 F3500.00
G1 X23.89 Y27.85 F3500.00
G1 X24.18 Y27.69 F3500.00
G1 X24.85 Y27.71 F3500.00
G1 X24.85 Y27.71 F3500.00
M300 S50.00 (pen up)
G4 P150 (wait 150ms)

(Polyline consisting of 11 segments.)
G1 X13.53 Y32.33 F3500.00
M300 S30.00 (pen down)
G4 P150 (wait 150ms)
G1 X12.89 Y32.73 F3500.00
G1 X12.78 Y32.92 F3500.00
G1 X12.92 Y32.96 F3500.00
G1 X13.07 Y33.10 F3500.00
G1 X13.27 Y33.45 F3500.00
G1 X13.35 Y33.19 F3500.00
G1 X13.94 Y32.59 F3500.00
G1 X15.34 Y32.78 F3500.00
G1 X16.40 Y32.92 F3500.00
G1 X16.04 Y32.85 F3500.00
G1 X15.19 Y32.63 F3500.00
G1 X13.53 Y32.33 F3500.00
G1 X13.53 Y32.33 F3500.00
M300 S50.00 (pen up)
G4 P150 (wait 150ms)


(end of print job)
M300 S50.00 (pen up)
G4 P150 (wait 150ms)
M300 S255 (turn off servo)
G1 X0 Y0 F3500.00
G1 Z0.00 F150.00 (go up to finished level)
G1 X0.00 Y0.00 F3500.00 (go home)
M18 (drives off)
