(Scribbled version of C:\Users\Abc\AppData\Local\Temp\ink_ext_XXXXXX.svgKQARH0 @ 3500.00)
( C:\Program Files (x86)\Inkscape\share\extensions\unicorn.py --tab="plotter_setup" --pen-up-angle=50 --pen-down-angle=30 --start-delay=150 --stop-delay=150 --xy-feedrate=3500 --z-feedrate=150 --z-height=0 --finished-height=0 --register-pen=true --x-home=0 --y-home=0 --num-copies=1 --continuous=false --pause-on-layer-change=false C:\Users\Abc\AppData\Local\Temp\ink_ext_XXXXXX.svgKQARH0 )
G21 (metric ftw)
G90 (absolute mode)
G92 X0.00 Y0.00 Z0.00 (you are here)

M300 S30 (pen down)
G4 P150 (wait 150ms)
M300 S50 (pen up)
G4 P150 (wait 150ms)
M18 (disengage drives)
M01 (Was registration test successful?)
M17 (engage drives if YES, and continue)

(Polyline consisting of 1 segments.)
G1 X-0.37 Y-0.25 F3500.00
M300 S30.00 (pen down)
G4 P150 (wait 150ms)
G1 X-0.72 Y-0.51 F3500.00
G1 X-1.43 Y-0.51 F3500.00
G1 X-1.78 Y-0.25 F3500.00
G1 X-1.43 Y0.02 F3500.00
G1 X-0.72 Y0.02 F3500.00
G1 X-0.37 Y-0.25 F3500.00
G1 X-0.37 Y-0.25 F3500.00
M300 S50.00 (pen up)
G4 P150 (wait 150ms)

(Polyline consisting of 17 segments.)
G1 X22.35 Y1.00 F3500.00
M300 S30.00 (pen down)
G4 P150 (wait 150ms)
G1 X18.33 Y2.19 F3500.00
G1 X16.17 Y3.01 F3500.00
G1 X14.24 Y4.24 F3500.00
G1 X12.40 Y5.44 F3500.00
G1 X11.56 Y5.86 F3500.00
G1 X10.60 Y5.86 F3500.00
G1 X9.65 Y5.86 F3500.00
G1 X9.65 Y6.05 F3500.00
G1 X9.82 Y6.40 F3500.00
G1 X9.99 Y6.57 F3500.00
G1 X9.57 Y6.57 F3500.00
G1 X7.36 Y5.62 F3500.00
G1 X7.12 Y5.48 F3500.00
G1 X6.98 Y5.64 F3500.00
G1 X6.90 Y7.18 F3500.00
G1 X6.90 Y8.76 F3500.00
G1 X7.17 Y9.45 F3500.00
G1 X7.44 Y10.15 F3500.00
G1 X7.19 Y10.30 F3500.00
G1 X5.84 Y11.35 F3500.00
G1 X4.82 Y12.71 F3500.00
G1 X4.11 Y14.40 F3500.00
G1 X3.73 Y16.39 F3500.00
G1 X3.44 Y19.32 F3500.00
G1 X2.81 Y22.13 F3500.00
G1 X1.53 Y24.33 F3500.00
G1 X1.16 Y24.77 F3500.00
G1 X0.43 Y24.69 F3500.00
G1 X-0.29 Y24.61 F3500.00
G1 X-0.02 Y24.83 F3500.00
G1 X2.16 Y25.92 F3500.00
G1 X4.85 Y26.12 F3500.00
G1 X7.96 Y25.43 F3500.00
G1 X11.40 Y23.87 F3500.00
G1 X12.80 Y23.10 F3500.00
G1 X13.52 Y23.81 F3500.00
G1 X16.84 Y26.18 F3500.00
G1 X17.10 Y26.76 F3500.00
G1 X17.81 Y28.23 F3500.00
G1 X18.95 Y29.68 F3500.00
G1 X20.40 Y30.99 F3500.00
G1 X22.04 Y32.02 F3500.00
G1 X22.81 Y32.33 F3500.00
G1 X22.62 Y31.92 F3500.00
G1 X21.73 Y29.57 F3500.00
G1 X21.47 Y26.81 F3500.00
G1 X21.53 Y26.32 F3500.00
G1 X22.17 Y26.32 F3500.00
G1 X22.69 Y26.22 F3500.00
G1 X22.08 Y25.97 F3500.00
G1 X21.55 Y25.82 F3500.00
G1 X21.66 Y25.39 F3500.00
G1 X21.78 Y24.95 F3500.00
G1 X22.52 Y24.79 F3500.00
G1 X23.74 Y24.34 F3500.00
G1 X24.86 Y23.97 F3500.00
G1 X25.80 Y23.71 F3500.00
G1 X26.46 Y22.97 F3500.00
G1 X27.30 Y21.98 F3500.00
G1 X28.17 Y20.70 F3500.00
G1 X28.92 Y18.90 F3500.00
G1 X29.16 Y18.07 F3500.00
G1 X29.19 Y15.81 F3500.00
G1 X29.33 Y13.46 F3500.00
G1 X29.60 Y13.07 F3500.00
G1 X30.12 Y12.81 F3500.00
G1 X30.84 Y12.51 F3500.00
G1 X31.61 Y12.94 F3500.00
G1 X32.43 Y13.32 F3500.00
G1 X31.71 Y12.86 F3500.00
G1 X30.94 Y12.45 F3500.00
G1 X31.23 Y12.15 F3500.00
G1 X31.52 Y11.61 F3500.00
G1 X31.60 Y11.17 F3500.00
G1 X31.69 Y10.94 F3500.00
G1 X32.34 Y10.94 F3500.00
G1 X34.25 Y10.51 F3500.00
G1 X34.41 Y10.34 F3500.00
G1 X34.08 Y10.51 F3500.00
G1 X32.77 Y10.76 F3500.00
G1 X31.79 Y10.84 F3500.00
G1 X31.88 Y10.27 F3500.00
G1 X31.82 Y9.26 F3500.00
G1 X31.50 Y8.69 F3500.00
G1 X30.59 Y7.91 F3500.00
G1 X29.74 Y7.18 F3500.00
G1 X29.59 Y7.38 F3500.00
G1 X29.36 Y7.22 F3500.00
G1 X26.35 Y3.75 F3500.00
G1 X24.93 Y2.02 F3500.00
G1 X23.92 Y0.94 F3500.00
G1 X22.35 Y1.00 F3500.00
G1 X22.35 Y1.00 F3500.00
M300 S50.00 (pen up)
G4 P150 (wait 150ms)

(Polyline consisting of 17 segments.)
G1 X24.41 Y1.55 F3500.00
M300 S30.00 (pen down)
G4 P150 (wait 150ms)
G1 X24.86 Y2.02 F3500.00
G1 X25.04 Y2.85 F3500.00
G1 X25.33 Y3.80 F3500.00
G1 X25.37 Y3.46 F3500.00
G1 X25.27 Y2.97 F3500.00
G1 X26.28 Y3.96 F3500.00
G1 X27.29 Y4.95 F3500.00
G1 X27.56 Y5.81 F3500.00
G1 X27.92 Y7.17 F3500.00
G1 X28.01 Y7.66 F3500.00
G1 X27.41 Y7.74 F3500.00
G1 X26.81 Y7.82 F3500.00
G1 X26.22 Y7.47 F3500.00
G1 X25.63 Y7.13 F3500.00
G1 X25.20 Y6.32 F3500.00
G1 X24.48 Y4.58 F3500.00
G1 X23.74 Y3.24 F3500.00
G1 X23.32 Y2.83 F3500.00
G1 X22.70 Y2.84 F3500.00
G1 X22.08 Y2.86 F3500.00
G1 X21.59 Y3.23 F3500.00
G1 X20.79 Y4.09 F3500.00
G1 X20.10 Y5.65 F3500.00
G1 X19.11 Y8.01 F3500.00
G1 X18.46 Y8.97 F3500.00
G1 X16.55 Y9.59 F3500.00
G1 X16.32 Y9.69 F3500.00
G1 X16.16 Y9.24 F3500.00
G1 X16.00 Y8.17 F3500.00
G1 X16.17 Y7.59 F3500.00
G1 X16.41 Y6.78 F3500.00
G1 X16.43 Y6.36 F3500.00
G1 X16.61 Y6.69 F3500.00
G1 X16.80 Y7.01 F3500.00
G1 X16.98 Y6.19 F3500.00
G1 X17.54 Y4.67 F3500.00
G1 X18.48 Y3.29 F3500.00
G1 X19.65 Y2.21 F3500.00
G1 X20.94 Y1.56 F3500.00
G1 X21.29 Y1.46 F3500.00
G1 X20.73 Y1.98 F3500.00
G1 X20.16 Y2.50 F3500.00
G1 X20.93 Y1.97 F3500.00
G1 X22.97 Y1.04 F3500.00
G1 X23.76 Y1.12 F3500.00
G1 X24.41 Y1.55 F3500.00
G1 X24.41 Y1.55 F3500.00
M300 S50.00 (pen up)
G4 P150 (wait 150ms)

(Polyline consisting of 17 segments.)
G1 X18.57 Y2.96 F3500.00
M300 S30.00 (pen down)
G4 P150 (wait 150ms)
G1 X17.48 Y4.43 F3500.00
G1 X16.99 Y5.64 F3500.00
G1 X16.86 Y5.92 F3500.00
G1 X16.67 Y5.83 F3500.00
G1 X16.22 Y6.67 F3500.00
G1 X15.82 Y7.68 F3500.00
G1 X15.89 Y8.43 F3500.00
G1 X16.07 Y9.43 F3500.00
G1 X16.17 Y9.67 F3500.00
G1 X15.63 Y9.69 F3500.00
G1 X15.08 Y9.71 F3500.00
G1 X15.65 Y9.82 F3500.00
G1 X16.21 Y9.92 F3500.00
G1 X15.89 Y10.02 F3500.00
G1 X15.58 Y10.26 F3500.00
G1 X16.02 Y10.15 F3500.00
G1 X16.47 Y9.92 F3500.00
G1 X18.10 Y9.92 F3500.00
G1 X19.74 Y9.91 F3500.00
G1 X18.26 Y9.82 F3500.00
G1 X16.78 Y9.74 F3500.00
G1 X17.34 Y9.47 F3500.00
G1 X18.66 Y9.14 F3500.00
G1 X19.88 Y9.32 F3500.00
G1 X20.44 Y9.56 F3500.00
G1 X20.16 Y9.68 F3500.00
G1 X19.88 Y9.79 F3500.00
G1 X20.26 Y9.80 F3500.00
G1 X20.65 Y9.81 F3500.00
G1 X20.74 Y10.17 F3500.00
G1 X20.42 Y12.39 F3500.00
G1 X20.27 Y12.87 F3500.00
G1 X20.60 Y12.29 F3500.00
G1 X21.11 Y11.65 F3500.00
G1 X21.32 Y11.86 F3500.00
G1 X20.73 Y13.27 F3500.00
G1 X19.70 Y16.39 F3500.00
G1 X19.58 Y18.69 F3500.00
G1 X19.83 Y19.41 F3500.00
G1 X20.28 Y19.75 F3500.00
G1 X20.91 Y19.67 F3500.00
G1 X21.72 Y19.10 F3500.00
G1 X22.33 Y18.54 F3500.00
G1 X22.49 Y18.85 F3500.00
G1 X22.92 Y19.08 F3500.00
G1 X23.19 Y19.01 F3500.00
G1 X23.21 Y19.38 F3500.00
G1 X23.22 Y19.76 F3500.00
G1 X23.34 Y19.17 F3500.00
G1 X23.61 Y18.28 F3500.00
G1 X23.70 Y18.01 F3500.00
G1 X23.35 Y18.49 F3500.00
G1 X22.89 Y19.04 F3500.00
G1 X22.63 Y18.93 F3500.00
G1 X22.96 Y17.39 F3500.00
G1 X23.80 Y15.11 F3500.00
G1 X24.10 Y12.85 F3500.00
G1 X24.11 Y11.58 F3500.00
G1 X25.10 Y11.40 F3500.00
G1 X26.26 Y11.29 F3500.00
G1 X26.44 Y11.36 F3500.00
G1 X26.43 Y12.95 F3500.00
G1 X26.29 Y15.53 F3500.00
G1 X26.07 Y17.50 F3500.00
G1 X25.78 Y18.89 F3500.00
G1 X25.58 Y19.28 F3500.00
G1 X25.27 Y19.24 F3500.00
G1 X25.00 Y18.98 F3500.00
G1 X24.91 Y18.92 F3500.00
G1 X24.68 Y19.41 F3500.00
G1 X24.59 Y19.76 F3500.00
G1 X24.74 Y19.53 F3500.00
G1 X25.22 Y19.37 F3500.00
G1 X25.56 Y19.43 F3500.00
G1 X25.77 Y19.13 F3500.00
G1 X25.98 Y18.83 F3500.00
G1 X26.07 Y19.19 F3500.00
G1 X26.52 Y19.64 F3500.00
G1 X27.16 Y19.46 F3500.00
G1 X27.71 Y18.69 F3500.00
G1 X28.12 Y17.52 F3500.00
G1 X28.45 Y14.08 F3500.00
G1 X28.46 Y12.21 F3500.00
G1 X28.84 Y12.21 F3500.00
G1 X29.57 Y11.94 F3500.00
G1 X29.93 Y11.66 F3500.00
G1 X30.24 Y12.00 F3500.00
G1 X30.46 Y12.45 F3500.00
G1 X29.98 Y12.70 F3500.00
G1 X29.31 Y13.08 F3500.00
G1 X29.05 Y13.37 F3500.00
G1 X29.03 Y15.65 F3500.00
G1 X29.01 Y17.93 F3500.00
G1 X28.78 Y18.77 F3500.00
G1 X28.13 Y20.46 F3500.00
G1 X27.41 Y21.60 F3500.00
G1 X27.10 Y21.87 F3500.00
G1 X27.19 Y21.59 F3500.00
G1 X27.29 Y21.31 F3500.00
G1 X26.95 Y21.68 F3500.00
G1 X26.25 Y22.26 F3500.00
G1 X25.67 Y22.37 F3500.00
G1 X25.34 Y22.06 F3500.00
G1 X25.40 Y21.34 F3500.00
G1 X25.49 Y21.03 F3500.00
G1 X25.28 Y21.21 F3500.00
G1 X24.73 Y22.18 F3500.00
G1 X24.49 Y23.33 F3500.00
G1 X24.53 Y23.85 F3500.00
G1 X24.26 Y23.85 F3500.00
G1 X23.87 Y23.50 F3500.00
G1 X23.77 Y23.14 F3500.00
G1 X23.81 Y23.61 F3500.00
G1 X23.85 Y24.08 F3500.00
G1 X23.44 Y24.29 F3500.00
G1 X20.61 Y24.87 F3500.00
G1 X18.33 Y24.77 F3500.00
G1 X18.08 Y24.63 F3500.00
G1 X18.03 Y24.78 F3500.00
G1 X18.73 Y25.14 F3500.00
G1 X20.83 Y25.83 F3500.00
G1 X21.41 Y26.03 F3500.00
G1 X20.64 Y26.01 F3500.00
G1 X17.84 Y25.39 F3500.00
G1 X15.90 Y24.55 F3500.00
G1 X15.44 Y24.32 F3500.00
G1 X17.01 Y25.52 F3500.00
G1 X18.35 Y26.54 F3500.00
G1 X17.21 Y26.12 F3500.00
G1 X15.36 Y25.08 F3500.00
G1 X13.72 Y23.78 F3500.00
G1 X12.97 Y23.07 F3500.00
G1 X13.25 Y22.87 F3500.00
G1 X13.83 Y22.40 F3500.00
G1 X13.39 Y22.60 F3500.00
G1 X7.50 Y25.55 F3500.00
G1 X6.34 Y25.95 F3500.00
G1 X4.78 Y25.94 F3500.00
G1 X3.23 Y25.94 F3500.00
G1 X2.10 Y25.57 F3500.00
G1 X0.73 Y25.02 F3500.00
G1 X0.48 Y24.84 F3500.00
G1 X1.51 Y24.82 F3500.00
G1 X3.35 Y24.60 F3500.00
G1 X5.20 Y24.03 F3500.00
G1 X8.59 Y22.12 F3500.00
G1 X9.95 Y20.91 F3500.00
G1 X10.97 Y19.62 F3500.00
G1 X11.56 Y18.32 F3500.00
G1 X11.63 Y17.08 F3500.00
G1 X11.55 Y16.66 F3500.00
G1 X11.16 Y16.61 F3500.00
G1 X10.55 Y16.76 F3500.00
G1 X10.36 Y17.35 F3500.00
G1 X10.35 Y17.92 F3500.00
G1 X10.07 Y17.78 F3500.00
G1 X9.79 Y17.07 F3500.00
G1 X9.79 Y16.62 F3500.00
G1 X9.43 Y16.38 F3500.00
G1 X8.87 Y15.70 F3500.00
G1 X8.71 Y15.08 F3500.00
G1 X9.06 Y15.22 F3500.00
G1 X9.61 Y15.46 F3500.00
G1 X9.90 Y15.46 F3500.00
G1 X9.62 Y14.89 F3500.00
G1 X9.42 Y14.27 F3500.00
G1 X9.73 Y14.38 F3500.00
G1 X10.16 Y14.60 F3500.00
G1 X10.50 Y14.32 F3500.00
G1 X10.66 Y14.03 F3500.00
G1 X10.49 Y13.51 F3500.00
G1 X9.08 Y11.79 F3500.00
G1 X7.90 Y10.31 F3500.00
G1 X7.12 Y8.65 F3500.00
G1 X6.82 Y7.09 F3500.00
G1 X7.09 Y5.89 F3500.00
G1 X7.21 Y5.71 F3500.00
G1 X7.94 Y6.16 F3500.00
G1 X8.67 Y6.62 F3500.00
G1 X9.48 Y6.68 F3500.00
G1 X10.29 Y6.74 F3500.00
G1 X10.11 Y6.56 F3500.00
G1 X9.94 Y6.19 F3500.00
G1 X10.13 Y6.09 F3500.00
G1 X11.82 Y5.87 F3500.00
G1 X14.17 Y4.48 F3500.00
G1 X16.84 Y2.89 F3500.00
G1 X19.30 Y2.07 F3500.00
G1 X18.57 Y2.96 F3500.00
G1 X18.57 Y2.96 F3500.00
M300 S50.00 (pen up)
G4 P150 (wait 150ms)

(Polyline consisting of 17 segments.)
G1 X17.81 Y20.23 F3500.00
M300 S30.00 (pen down)
G4 P150 (wait 150ms)
G1 X17.12 Y21.47 F3500.00
G1 X16.94 Y22.11 F3500.00
G1 X17.18 Y22.60 F3500.00
G1 X17.82 Y23.28 F3500.00
G1 X18.75 Y23.49 F3500.00
G1 X19.81 Y23.23 F3500.00
G1 X20.83 Y22.51 F3500.00
G1 X21.48 Y21.70 F3500.00
G1 X20.92 Y21.81 F3500.00
G1 X19.94 Y22.13 F3500.00
G1 X19.18 Y22.00 F3500.00
G1 X18.66 Y21.42 F3500.00
G1 X18.40 Y20.40 F3500.00
G1 X18.33 Y19.63 F3500.00
G1 X17.81 Y20.23 F3500.00
G1 X17.81 Y20.23 F3500.00
M300 S50.00 (pen up)
G4 P150 (wait 150ms)

(Polyline consisting of 17 segments.)
G1 X18.26 Y20.55 F3500.00
M300 S30.00 (pen down)
G4 P150 (wait 150ms)
G1 X18.52 Y21.51 F3500.00
G1 X19.19 Y22.16 F3500.00
G1 X19.68 Y22.39 F3500.00
G1 X20.38 Y22.18 F3500.00
G1 X21.04 Y22.10 F3500.00
G1 X20.48 Y22.64 F3500.00
G1 X18.92 Y23.31 F3500.00
G1 X17.73 Y23.03 F3500.00
G1 X17.22 Y22.05 F3500.00
G1 X17.72 Y20.59 F3500.00
G1 X18.14 Y20.14 F3500.00
G1 X18.26 Y20.55 F3500.00
G1 X18.26 Y20.55 F3500.00
M300 S50.00 (pen up)
G4 P150 (wait 150ms)

(Polyline consisting of 17 segments.)
G1 X23.17 Y3.06 F3500.00
M300 S30.00 (pen down)
G4 P150 (wait 150ms)
G1 X23.59 Y3.36 F3500.00
G1 X23.33 Y4.00 F3500.00
G1 X22.64 Y4.63 F3500.00
G1 X22.06 Y4.72 F3500.00
G1 X21.72 Y4.87 F3500.00
G1 X20.40 Y5.38 F3500.00
G1 X20.46 Y4.92 F3500.00
G1 X20.95 Y4.18 F3500.00
G1 X22.26 Y3.06 F3500.00
G1 X22.71 Y2.91 F3500.00
G1 X23.17 Y3.06 F3500.00
M300 S50.00 (pen up)
G4 P150 (wait 150ms)

(Polyline consisting of 17 segments.)
G1 X24.40 Y4.86 F3500.00
M300 S30.00 (pen down)
G4 P150 (wait 150ms)
G1 X24.97 Y6.27 F3500.00
G1 X25.27 Y6.93 F3500.00
G1 X24.78 Y6.93 F3500.00
G1 X23.69 Y7.03 F3500.00
G1 X22.29 Y7.81 F3500.00
G1 X20.65 Y8.87 F3500.00
G1 X20.02 Y9.24 F3500.00
G1 X19.81 Y9.10 F3500.00
G1 X19.21 Y8.97 F3500.00
G1 X18.82 Y8.97 F3500.00
G1 X19.29 Y8.01 F3500.00
G1 X20.02 Y6.33 F3500.00
G1 X20.28 Y5.60 F3500.00
G1 X20.77 Y5.51 F3500.00
G1 X21.61 Y5.19 F3500.00
G1 X22.33 Y4.93 F3500.00
G1 X23.26 Y4.26 F3500.00
G1 X23.83 Y3.63 F3500.00
G1 X24.00 Y3.85 F3500.00
G1 X24.40 Y4.86 F3500.00
G1 X24.40 Y4.86 F3500.00
M300 S50.00 (pen up)
G4 P150 (wait 150ms)

(Polyline consisting of 17 segments.)
G1 X28.70 Y6.60 F3500.00
M300 S30.00 (pen down)
G4 P150 (wait 150ms)
G1 X29.72 Y8.08 F3500.00
G1 X30.00 Y8.39 F3500.00
G1 X30.04 Y7.94 F3500.00
G1 X29.95 Y7.49 F3500.00
G1 X30.49 Y8.07 F3500.00
G1 X31.80 Y9.89 F3500.00
G1 X31.08 Y11.69 F3500.00
G1 X30.81 Y11.97 F3500.00
G1 X30.95 Y12.00 F3500.00
G1 X31.09 Y12.06 F3500.00
G1 X30.82 Y12.20 F3500.00
G1 X30.29 Y11.91 F3500.00
G1 X29.97 Y11.60 F3500.00
G1 X29.97 Y11.07 F3500.00
G1 X29.97 Y10.54 F3500.00
G1 X30.42 Y10.67 F3500.00
G1 X31.23 Y10.78 F3500.00
G1 X31.59 Y10.76 F3500.00
G1 X31.23 Y10.70 F3500.00
G1 X30.35 Y10.50 F3500.00
G1 X29.82 Y10.37 F3500.00
G1 X29.82 Y10.10 F3500.00
G1 X29.41 Y8.92 F3500.00
G1 X28.52 Y7.92 F3500.00
G1 X28.13 Y7.41 F3500.00
G1 X27.86 Y6.30 F3500.00
G1 X27.76 Y5.50 F3500.00
G1 X28.70 Y6.60 F3500.00
G1 X28.70 Y6.60 F3500.00
M300 S50.00 (pen up)
G4 P150 (wait 150ms)

(Polyline consisting of 17 segments.)
G1 X25.85 Y7.48 F3500.00
M300 S30.00 (pen down)
G4 P150 (wait 150ms)
G1 X26.71 Y8.04 F3500.00
G1 X27.01 Y8.25 F3500.00
G1 X27.11 Y8.09 F3500.00
G1 X27.60 Y7.87 F3500.00
G1 X28.53 Y8.12 F3500.00
G1 X29.33 Y9.15 F3500.00
G1 X29.78 Y10.71 F3500.00
G1 X29.86 Y11.46 F3500.00
G1 X29.47 Y11.76 F3500.00
G1 X27.93 Y11.99 F3500.00
G1 X27.18 Y11.79 F3500.00
G1 X26.86 Y11.42 F3500.00
G1 X26.64 Y11.22 F3500.00
G1 X26.13 Y11.06 F3500.00
G1 X25.88 Y10.68 F3500.00
G1 X25.94 Y10.26 F3500.00
G1 X26.33 Y9.96 F3500.00
G1 X27.12 Y9.63 F3500.00
G1 X27.30 Y9.48 F3500.00
G1 X27.89 Y10.07 F3500.00
G1 X28.48 Y10.66 F3500.00
G1 X28.33 Y10.90 F3500.00
G1 X27.55 Y11.31 F3500.00
G1 X27.25 Y11.49 F3500.00
G1 X28.02 Y11.40 F3500.00
G1 X28.41 Y11.07 F3500.00
G1 X28.39 Y10.55 F3500.00
G1 X27.95 Y9.90 F3500.00
G1 X27.36 Y9.27 F3500.00
G1 X27.08 Y9.47 F3500.00
G1 X26.26 Y9.82 F3500.00
G1 X25.67 Y10.17 F3500.00
G1 X25.72 Y10.68 F3500.00
G1 X25.71 Y11.06 F3500.00
G1 X25.21 Y11.28 F3500.00
G1 X23.19 Y11.14 F3500.00
G1 X22.16 Y10.91 F3500.00
G1 X22.50 Y10.63 F3500.00
G1 X22.84 Y10.36 F3500.00
G1 X22.21 Y10.71 F3500.00
G1 X21.28 Y11.14 F3500.00
G1 X20.98 Y11.23 F3500.00
G1 X20.97 Y10.80 F3500.00
G1 X20.87 Y10.11 F3500.00
G1 X20.78 Y9.83 F3500.00
G1 X21.25 Y9.78 F3500.00
G1 X21.71 Y9.72 F3500.00
G1 X21.20 Y9.70 F3500.00
G1 X20.50 Y9.44 F3500.00
G1 X20.30 Y9.20 F3500.00
G1 X20.48 Y9.14 F3500.00
G1 X21.98 Y8.20 F3500.00
G1 X23.46 Y7.27 F3500.00
G1 X24.43 Y7.14 F3500.00
G1 X25.18 Y7.13 F3500.00
G1 X25.85 Y7.48 F3500.00
G1 X25.85 Y7.48 F3500.00
M300 S50.00 (pen up)
G4 P150 (wait 150ms)

(Polyline consisting of 17 segments.)
G1 X7.74 Y10.65 F3500.00
M300 S30.00 (pen down)
G4 P150 (wait 150ms)
G1 X8.74 Y11.72 F3500.00
G1 X9.86 Y12.84 F3500.00
G1 X10.36 Y13.76 F3500.00
G1 X10.47 Y14.17 F3500.00
G1 X10.28 Y14.33 F3500.00
G1 X10.09 Y14.49 F3500.00
G1 X9.72 Y14.13 F3500.00
G1 X9.22 Y13.91 F3500.00
G1 X9.43 Y14.83 F3500.00
G1 X9.51 Y15.29 F3500.00
G1 X8.96 Y14.95 F3500.00
G1 X8.52 Y14.59 F3500.00
G1 X8.52 Y15.09 F3500.00
G1 X8.52 Y15.60 F3500.00
G1 X9.09 Y16.22 F3500.00
G1 X9.65 Y17.20 F3500.00
G1 X9.91 Y17.82 F3500.00
G1 X10.42 Y18.14 F3500.00
G1 X10.63 Y18.14 F3500.00
G1 X10.55 Y17.51 F3500.00
G1 X10.46 Y16.88 F3500.00
G1 X10.82 Y16.79 F3500.00
G1 X11.38 Y16.86 F3500.00
G1 X11.46 Y17.71 F3500.00
G1 X11.21 Y18.79 F3500.00
G1 X10.64 Y19.87 F3500.00
G1 X8.70 Y21.88 F3500.00
G1 X5.93 Y23.53 F3500.00
G1 X2.61 Y24.57 F3500.00
G1 X1.56 Y24.68 F3500.00
G1 X1.93 Y24.03 F3500.00
G1 X3.16 Y21.69 F3500.00
G1 X3.73 Y18.04 F3500.00
G1 X4.08 Y15.15 F3500.00
G1 X4.71 Y13.26 F3500.00
G1 X6.45 Y10.99 F3500.00
G1 X7.28 Y10.47 F3500.00
G1 X7.74 Y10.65 F3500.00
G1 X7.74 Y10.65 F3500.00
M300 S50.00 (pen up)
G4 P150 (wait 150ms)

(Polyline consisting of 17 segments.)
G1 X22.64 Y12.48 F3500.00
M300 S30.00 (pen down)
G4 P150 (wait 150ms)
G1 X22.16 Y13.98 F3500.00
G1 X21.84 Y14.54 F3500.00
G1 X21.43 Y14.54 F3500.00
G1 X21.01 Y14.54 F3500.00
G1 X20.88 Y14.17 F3500.00
G1 X20.87 Y13.40 F3500.00
G1 X20.98 Y12.99 F3500.00
G1 X21.12 Y13.45 F3500.00
G1 X21.44 Y13.86 F3500.00
G1 X21.85 Y13.67 F3500.00
G1 X22.19 Y13.05 F3500.00
G1 X22.34 Y12.13 F3500.00
G1 X22.52 Y11.39 F3500.00
G1 X22.70 Y11.21 F3500.00
G1 X22.75 Y11.38 F3500.00
G1 X22.64 Y12.48 F3500.00
G1 X22.64 Y12.48 F3500.00
M300 S50.00 (pen up)
G4 P150 (wait 150ms)

(Polyline consisting of 17 segments.)
G1 X23.96 Y11.97 F3500.00
M300 S30.00 (pen down)
G4 P150 (wait 150ms)
G1 X24.05 Y13.26 F3500.00
G1 X23.81 Y14.70 F3500.00
G1 X22.64 Y17.55 F3500.00
G1 X21.11 Y19.38 F3500.00
G1 X20.41 Y19.57 F3500.00
G1 X19.86 Y19.09 F3500.00
G1 X19.63 Y18.64 F3500.00
G1 X19.71 Y17.51 F3500.00
G1 X20.16 Y15.18 F3500.00
G1 X20.54 Y13.99 F3500.00
G1 X20.75 Y14.37 F3500.00
G1 X21.12 Y14.77 F3500.00
G1 X21.74 Y14.65 F3500.00
G1 X22.24 Y14.15 F3500.00
G1 X22.86 Y12.10 F3500.00
G1 X22.95 Y11.35 F3500.00
G1 X23.39 Y11.39 F3500.00
G1 X23.83 Y11.44 F3500.00
G1 X23.96 Y11.97 F3500.00
G1 X23.96 Y11.97 F3500.00
M300 S50.00 (pen up)
G4 P150 (wait 150ms)

(Polyline consisting of 17 segments.)
G1 X27.57 Y13.28 F3500.00
M300 S30.00 (pen down)
G4 P150 (wait 150ms)
G1 X27.41 Y14.60 F3500.00
G1 X27.25 Y15.05 F3500.00
G1 X26.95 Y15.01 F3500.00
G1 X26.65 Y14.96 F3500.00
G1 X26.60 Y14.48 F3500.00
G1 X26.56 Y13.99 F3500.00
G1 X26.76 Y14.16 F3500.00
G1 X26.97 Y14.33 F3500.00
G1 X27.14 Y14.12 F3500.00
G1 X27.26 Y12.91 F3500.00
G1 X27.20 Y11.91 F3500.00
G1 X27.39 Y12.16 F3500.00
G1 X27.57 Y13.28 F3500.00
M300 S50.00 (pen up)
G4 P150 (wait 150ms)

(Polyline consisting of 17 segments.)
G1 X28.28 Y13.09 F3500.00
M300 S30.00 (pen down)
G4 P150 (wait 150ms)
G1 X27.96 Y17.47 F3500.00
G1 X27.53 Y18.78 F3500.00
G1 X26.92 Y19.44 F3500.00
G1 X26.55 Y19.61 F3500.00
G1 X26.34 Y19.33 F3500.00
G1 X26.13 Y19.05 F3500.00
G1 X26.21 Y17.85 F3500.00
G1 X26.39 Y15.85 F3500.00
G1 X26.47 Y15.05 F3500.00
G1 X26.85 Y15.12 F3500.00
G1 X27.43 Y14.95 F3500.00
G1 X27.64 Y14.71 F3500.00
G1 X27.64 Y13.46 F3500.00
G1 X27.64 Y12.21 F3500.00
G1 X27.95 Y12.21 F3500.00
G1 X28.27 Y12.21 F3500.00
G1 X28.28 Y13.09 F3500.00
G1 X28.28 Y13.09 F3500.00
M300 S50.00 (pen up)
G4 P150 (wait 150ms)

(Polyline consisting of 17 segments.)
G1 X25.68 Y22.61 F3500.00
M300 S30.00 (pen down)
G4 P150 (wait 150ms)
G1 X26.33 Y22.47 F3500.00
G1 X26.73 Y22.23 F3500.00
G1 X26.48 Y22.67 F3500.00
G1 X25.51 Y23.64 F3500.00
G1 X25.04 Y23.72 F3500.00
G1 X24.70 Y23.47 F3500.00
G1 X24.55 Y23.23 F3500.00
G1 X24.80 Y22.42 F3500.00
G1 X25.06 Y21.61 F3500.00
G1 X25.25 Y22.06 F3500.00
G1 X25.68 Y22.61 F3500.00
G1 X25.68 Y22.61 F3500.00
M300 S50.00 (pen up)
G4 P150 (wait 150ms)

(Polyline consisting of 17 segments.)
G1 X18.89 Y25.82 F3500.00
M300 S30.00 (pen down)
G4 P150 (wait 150ms)
G1 X20.16 Y26.13 F3500.00
G1 X20.27 Y26.97 F3500.00
G1 X20.97 Y29.53 F3500.00
G1 X22.09 Y31.53 F3500.00
G1 X22.25 Y31.91 F3500.00
G1 X21.42 Y31.52 F3500.00
G1 X19.55 Y30.01 F3500.00
G1 X17.96 Y28.17 F3500.00
G1 X17.21 Y26.78 F3500.00
G1 X17.32 Y26.49 F3500.00
G1 X17.85 Y26.58 F3500.00
G1 X18.96 Y26.95 F3500.00
G1 X19.46 Y27.05 F3500.00
G1 X18.34 Y26.26 F3500.00
G1 X17.22 Y25.44 F3500.00
G1 X17.34 Y25.39 F3500.00
G1 X18.89 Y25.82 F3500.00
G1 X18.89 Y25.82 F3500.00
M300 S50.00 (pen up)
G4 P150 (wait 150ms)

(Polyline consisting of 17 segments.)
G1 X21.30 Y27.59 F3500.00
M300 S30.00 (pen down)
G4 P150 (wait 150ms)
G1 X21.62 Y29.88 F3500.00
G1 X21.83 Y30.83 F3500.00
G1 X20.98 Y29.03 F3500.00
G1 X20.38 Y26.49 F3500.00
G1 X20.37 Y26.16 F3500.00
G1 X20.81 Y26.20 F3500.00
G1 X21.26 Y26.25 F3500.00
G1 X21.30 Y27.59 F3500.00
G1 X21.30 Y27.59 F3500.00
M300 S50.00 (pen up)
G4 P150 (wait 150ms)


(end of print job)
M300 S50.00 (pen up)
G4 P150 (wait 150ms)
M300 S255 (turn off servo)
G1 X0 Y0 F3500.00
G1 Z0.00 F150.00 (go up to finished level)
G1 X0.00 Y0.00 F3500.00 (go home)
M18 (drives off)
